assets/Teacher/Medium-Light/Flat/teacher_flat_medium-light.svg

<svg width="32" height="32" viewBox="0 0 32 32" fill="none" xmlns="http://www.w3.org/2000/svg">
<g clip-path="url(#clip0_11769_20823)">
<path d="M3 7L10.5 19L27.5 24L29.8062 24.8062C29.9175 24.6925 29.985 24.535 29.98 24.36V4.62C29.98 4.28 29.71 4 29.36 4H2.62C2.45 4 2.295 4.07 2.1825 4.1825L3 7Z" fill="#FFCE7C"/>
<path d="M2.62 24.9901H29.37C29.54 24.9901 29.695 24.9201 29.8062 24.8064L29 24.0001L3 5.00012L2.1825 4.18262C2.07 4.29512 2 4.45012 2 4.62012V24.3701C2 24.7101 2.28 24.9901 2.62 24.9901Z" fill="#E19747"/>
<path d="M3 23.99V5H28.99V23.99H3Z" fill="#44911B"/>
<path d="M9 18.0145C10.9026 16.4434 13.342 15.5 16 15.5C18.6599 15.5 21.099 16.4448 23 18.0179L24.5 24L23 30H9L7.5 24L9 18.0145Z" fill="#8C5543"/>
<path d="M11.29 18.94L12.65 16H14V30L11.2 22.13C11.07 21.78 11.17 21.39 11.43 21.13L12.79 19.8C12.95 19.64 12.84 19.35 12.6 19.35H11.55C11.34 19.35 11.2 19.13 11.29 18.94Z" fill="#6D4534"/>
<path d="M20.76 18.94L19.4 16H18V30L20.85 22.13C20.98 21.78 20.88 21.39 20.62 21.13L19.26 19.8C19.1 19.64 19.21 19.35 19.45 19.35H20.5C20.71 19.35 20.85 19.13 20.76 18.94Z" fill="#6D4534"/>
<path d="M9.00005 18C6.57005 20.03 4.99005 23.09 5.00005 26.5V30H9.00005V18Z" fill="#6D4534"/>
<path d="M23 18V30H27V29.0098C27 29.0065 27 29.0033 27 29L26.99 26.49C26.99 23.08 25.45 20.02 23 18Z" fill="#6D4534"/>
<path d="M18.0499 16.8201H13.9399V30.0001H18.0499V16.8201Z" fill="#E6E6E6"/>
<path d="M16 18.67C14.8932 18.67 14 17.75 14 16.61V14.05C14 12.91 14.8932 11.99 16 11.99C17.1068 11.99 18 12.91 18 14.05V16.61C17.9903 17.75 17.0971 18.67 16 18.67Z" fill="#E4B29A"/>
<path d="M22.25 5.29C21.95 4.77 21.48 4.41 20.96 4.23C20.39 4.04 19.89 3.66 19.58 3.15C19.15 2.46 18.4 2 17.54 2C17.21 2 16.89 2.07 16.61 2.19C16.22 2.36 15.78 2.36 15.39 2.19C15.1 2.07 14.79 2 14.45 2C13.6 2 12.86 2.44 12.44 3.11C12.11 3.63 11.61 4.03 11.03 4.23C10.48 4.42 10 4.81 9.70003 5.36C9.27003 6.16 9.36003 7.12 9.85003 7.83C10.03 8.09 10.13 8.4 10.13 8.71V12.88C10.13 13.81 10.72 14.63 11.6 14.94L13.49 15.59V8.17C13.64 8.03 13.76 7.86 13.87 7.67C14.04 7.38 14.14 7.06 14.17 6.75C14.26 6.76 14.36 6.77 14.45 6.77C15.04 6.77 15.58 6.56 15.99 6.2C16.41 6.55 16.94 6.77 17.53 6.77C17.63 6.77 17.72 6.76 17.81 6.75C17.85 7.07 17.94 7.38 18.11 7.67C18.22 7.86 18.35 8.02 18.49 8.17V15.6L20.38 14.95C21.26 14.65 21.85 13.82 21.85 12.89V8.72C21.85 8.41 21.95 8.1 22.13 7.84C22.65 7.1 22.72 6.11 22.25 5.29Z" fill="#FFF9BA"/>
<path d="M12.7701 10.5899C12.7701 11.5122 12.0224 12.2599 11.1001 12.2599C10.1777 12.2599 9.43005 11.5122 9.43005 10.5899C9.43005 9.66761 10.1777 8.91992 11.1001 8.91992C12.0224 8.91992 12.7701 9.66761 12.7701 10.5899Z" fill="#E4B29A"/>
<path d="M22.56 10.5899C22.56 11.5122 21.8123 12.2599 20.89 12.2599C19.9677 12.2599 19.22 11.5122 19.22 10.5899C19.22 9.66761 19.9677 8.91992 20.89 8.91992C21.8123 8.91992 22.56 9.66761 22.56 10.5899Z" fill="#E4B29A"/>
<path d="M10.8302 8.07633C10.8483 6.21174 12.3713 4.69995 14.24 4.69995H15.54C15.82 4.69995 16.06 4.86995 16.17 5.11995C16.57 6.00995 17.46 6.56995 18.43 6.56995H19.86C20.66 6.60995 21.29 7.27995 21.27 8.08995L21.258 8.60787L20.9501 13.5599C20.6801 15.53 19.0101 17 17.0201 17H15.1201C13.1401 17 11.4601 15.53 11.1901 13.5599L10.8302 8.07633Z" fill="#EEBFAA"/>
<path d="M12.3316 8.0339C12.2123 8.12689 12.191 8.299 12.284 8.41831C12.3769 8.53762 12.5491 8.55896 12.6684 8.46597L12.7631 8.40386C12.8319 8.36256 12.9353 8.30712 13.0681 8.25468C13.3337 8.14979 13.7127 8.05839 14.168 8.11196C14.3182 8.12963 14.4543 8.02217 14.472 7.87194C14.4897 7.7217 14.3822 7.58558 14.232 7.56791C13.6673 7.50148 13.1963 7.61507 12.8669 7.74518C12.7021 7.81025 12.5718 7.8798 12.4813 7.93413C12.4359 7.96133 12.4004 7.98483 12.3752 8.00223C12.3627 8.01093 12.3527 8.01812 12.3454 8.02349L12.3316 8.0339Z" fill="#A56953"/>
<path d="M19.7261 8.41831C19.8191 8.299 19.7976 8.12675 19.6783 8.03376L19.6765 8.03241L19.6736 8.03016L19.6646 8.02349C19.6573 8.01812 19.6474 8.01093 19.6348 8.00223C19.6097 7.98483 19.5741 7.96133 19.5288 7.93413C19.4382 7.8798 19.3079 7.81025 19.1432 7.74518C18.8137 7.61507 18.3427 7.50148 17.7781 7.56791C17.6278 7.58558 17.5204 7.7217 17.538 7.87194C17.5557 8.02217 17.6918 8.12963 17.8421 8.11196C18.2974 8.05839 18.6764 8.14979 18.9419 8.25468C19.0747 8.30712 19.1781 8.36256 19.247 8.40386C19.2813 8.42447 19.3068 8.44144 19.3229 8.45256C19.3309 8.45812 19.3366 8.4622 19.3397 8.46453L19.3426 8.46668C19.4619 8.55885 19.6333 8.53732 19.7261 8.41831Z" fill="#A56953"/>
<path d="M12.18 10.28C12.33 9.65995 12.89 9.19995 13.56 9.19995C14.25 9.19995 14.83 9.68995 14.96 10.35C14.99 10.5 14.88 10.63 14.73 10.63H12.45C12.27 10.63 12.14 10.46 12.18 10.28Z" fill="white"/>
<path d="M19.83 10.28C19.68 9.65995 19.12 9.19995 18.45 9.19995C17.75 9.19995 17.18 9.68995 17.05 10.35C17.02 10.5 17.13 10.63 17.28 10.63H19.56C19.74 10.63 19.87 10.46 19.83 10.28Z" fill="white"/>
<path d="M12.86 10.39C12.86 9.88998 13.27 9.47998 13.77 9.47998C14.28 9.47998 14.68 9.88998 14.68 10.39C14.68 10.47 14.67 10.55 14.65 10.63H12.89C12.87 10.55 12.86 10.47 12.86 10.39Z" fill="#7D4533"/>
<path d="M19.15 10.39C19.15 9.88998 18.74 9.47998 18.24 9.47998C17.73 9.47998 17.32 9.88998 17.33 10.39C17.33 10.47 17.34 10.55 17.36 10.63H19.12C19.14 10.55 19.15 10.47 19.15 10.39Z" fill="#7D4533"/>
<path d="M13.77 9.87012C14.06 9.87012 14.29 10.1001 14.29 10.3901C14.29 10.4801 14.27 10.5601 14.23 10.6301H13.31C13.27 10.5601 13.25 10.4801 13.25 10.3901C13.25 10.1001 13.48 9.87012 13.77 9.87012Z" fill="black"/>
<path d="M18.24 9.87012C17.95 9.87012 17.72 10.1001 17.72 10.3901C17.72 10.4801 17.74 10.5601 17.78 10.6301H18.7C18.74 10.5601 18.76 10.4801 18.76 10.3901C18.76 10.1001 18.53 9.87012 18.24 9.87012Z" fill="black"/>
<path d="M13.62 10.0201C13.62 10.1085 13.5484 10.1801 13.46 10.1801C13.3717 10.1801 13.3 10.1085 13.3 10.0201C13.3 9.93174 13.3717 9.86011 13.46 9.86011C13.5484 9.86011 13.62 9.93174 13.62 10.0201Z" fill="white"/>
<path d="M18.11 10.0201C18.11 10.1085 18.0384 10.1801 17.95 10.1801C17.8617 10.1801 17.79 10.1085 17.79 10.0201C17.79 9.93174 17.8617 9.86011 17.95 9.86011C18.0384 9.86011 18.11 9.93174 18.11 10.0201Z" fill="white"/>
<path d="M15.69 10.3099L15.16 12.0199C15.05 12.3699 15.31 12.7299 15.68 12.7299H16.46C16.83 12.7299 17.09 12.3699 16.98 12.0199L16.45 10.3099C16.34 9.9299 15.81 9.9299 15.69 10.3099Z" fill="#D19479"/>
<path d="M16 13.6801C15.46 13.6801 14.95 13.5501 14.52 13.3201C14.37 13.2401 14.22 13.4101 14.31 13.5501C14.67 14.1001 15.29 14.4701 16 14.4701C16.71 14.4701 17.33 14.1001 17.69 13.5501C17.78 13.4101 17.62 13.2501 17.48 13.3201C17.05 13.5501 16.55 13.6801 16 13.6801Z" fill="#990838"/>
<g filter="url(#filter0_d_11769_20823)">
<path d="M9.31995 24.1001C9.31995 23.5501 9.76995 23.1001 10.3199 23.1001C10.8799 23.1001 11.3199 23.5501 11.3199 24.1001V26.3901H9.31995V24.1001Z" fill="#E4B29A"/>
<path d="M22.6699 24.1001C22.6699 23.5501 22.2199 23.1001 21.6699 23.1001C21.1099 23.1001 20.6699 23.5501 20.6699 24.1001V26.3901H22.6699V24.1001Z" fill="#E4B29A"/>
</g>
<path d="M20.83 8.48999H17.36C17.06 8.48999 16.78 8.62999 16.59 8.85999C16.47 9.00999 16.29 9.09999 16.08 9.09999C15.87 9.09999 15.69 9.00999 15.57 8.85999C15.38 8.62999 15.1 8.48999 14.8 8.48999H11.32C11.13 8.48999 10.98 8.63999 10.98 8.82999V9.04999C10.98 9.15999 11.03 9.24999 11.11 9.30999C11.15 9.33999 11.18 9.38999 11.18 9.43999V10.54C11.18 11.59 12.03 12.45 13.09 12.45H13.8C14.85 12.45 15.71 11.6 15.71 10.54V9.92999C15.72 9.72999 15.88 9.57999 16.08 9.57999C16.28 9.57999 16.44 9.73999 16.45 9.93999V9.95999C16.45 9.95999 16.45 9.95999 16.45 9.96999V10.54C16.45 11.59 17.3 12.45 18.36 12.45H19.07C20.12 12.45 20.98 11.6 20.98 10.54V9.42999C20.98 9.37999 21 9.32999 21.04 9.29999C21.12 9.23999 21.17 9.13999 21.17 9.03999V8.82999C21.17 8.63999 21.02 8.48999 20.83 8.48999ZM15.37 10.44C15.37 11.35 14.63 12.09 13.72 12.09H13.17C12.26 12.09 11.52 11.35 11.52 10.44V9.71999C11.52 9.22999 11.91 8.83999 12.4 8.83999H14.48C14.97 8.83999 15.36 9.22999 15.36 9.71999V10.44H15.37ZM20.65 10.44C20.65 11.35 19.91 12.09 19 12.09H18.45C17.54 12.09 16.8 11.35 16.8 10.44V9.71999C16.8 9.22999 17.19 8.83999 17.68 8.83999H19.77C20.26 8.83999 20.65 9.22999 20.65 9.71999V10.44Z" fill="#433B6B"/>
<path d="M11.3099 22.8801V30.0001H21.6499V21.8101C21.6499 21.3601 21.2899 21.0001 20.8399 21.0001H13.1999C12.1499 20.9901 11.3099 21.8401 11.3099 22.8801Z" fill="#F92F60"/>
<path d="M10.3099 30.0001V21.8801C10.3099 20.8401 11.1499 19.9901 12.1999 20.0001H20.8399C21.2899 20.0001 21.6499 20.3601 21.6499 20.8101V21.4346H12V30.0001H10.3099Z" fill="#433B6B"/>
<path d="M21.64 20.8601H12.1C11.62 20.8601 11.23 21.2501 11.23 21.7301C11.23 22.2101 11.62 22.6001 12.1 22.6001H21.64V20.8601Z" fill="#E6E6E6"/>
<path d="M14.2599 25.49C14.2499 25.08 13.8999 24.76 13.4899 24.76V24.75H10.1899C9.70995 24.75 9.31995 25.14 9.31995 25.62V29.13C9.31995 29.61 9.70995 30 10.1899 30H13.4899C13.8999 30 14.2499 29.68 14.2599 29.27C14.2599 29 14.1299 28.76 13.9199 28.62C14.1299 28.49 14.2599 28.26 14.2599 28C14.2599 27.74 14.1199 27.51 13.9199 27.38C14.1299 27.25 14.2599 27.02 14.2599 26.76C14.2599 26.5 14.1199 26.27 13.9199 26.14C14.1299 26 14.2699 25.76 14.2599 25.49Z" fill="#EEBFAA"/>
<path d="M17.73 25.49C17.74 25.08 18.09 24.76 18.5 24.76V24.75H21.8C22.28 24.75 22.67 25.14 22.67 25.62V29.13C22.67 29.61 22.28 30 21.8 30H18.5C18.09 30 17.74 29.68 17.73 29.27C17.73 29 17.86 28.76 18.07 28.62C17.86 28.49 17.73 28.26 17.73 28C17.73 27.74 17.87 27.51 18.07 27.38C17.86 27.25 17.73 27.02 17.73 26.76C17.73 26.5 17.87 26.27 18.07 26.14C17.86 26 17.72 25.76 17.73 25.49Z" fill="#EEBFAA"/>
</g>
<defs>
<filter id="filter0_d_11769_20823" x="5.31995" y="23.1001" width="21.35" height="11.29" filterUnits="userSpaceOnUse" color-interpolation-filters="sRGB">
<feFlood flood-opacity="0" result="BackgroundImageFix"/>
<feColorMatrix in="SourceAlpha" type="matrix" values="0 0 0 0 0 0 0 0 0 0 0 0 0 0 0 0 0 0 127 0" result="hardAlpha"/>
<feOffset dy="4"/>
<feGaussianBlur stdDeviation="2"/>
<feColorMatrix type="matrix" values="0 0 0 0 0 0 0 0 0 0 0 0 0 0 0 0 0 0 0.25 0"/>
<feBlend mode="normal" in2="BackgroundImageFix" result="effect1_dropShadow_11769_20823"/>
<feBlend mode="normal" in="SourceGraphic" in2="effect1_dropShadow_11769_20823" result="shape"/>
</filter>
<clipPath id="clip0_11769_20823">
<rect width="32" height="32" fill="white"/>
</clipPath>
</defs>
</svg>

<svg xmlns="http://www.w3.org/2000/svg" width="32" height="32" fill="none"><g clip-path="url(#a)"><path fill="#FFCE7C" d="m3 7 7.5 12 17 5 2.306.806a.61.61 0 0 0 .174-.446V4.62c0-.34-.27-.62-.62-.62H2.62c-.17 0-.325.07-.438.183L3 7Z"/><path fill="#E19747" d="M2.62 24.99h26.75c.17 0 .325-.07.436-.184L29 24 3 5l-.817-.817A.618.618 0 0 0 2 4.62v19.75c0 .34.28.62.62.62Z"/><path fill="#44911B" d="M3 23.99V5h25.99v18.99H3Z"/><path fill="#8C5543" d="M9 18.015a10.957 10.957 0 0 1 7-2.515c2.66 0 5.099.945 7 2.518L24.5 24 23 30H9l-1.5-6L9 18.015Z"/><path fill="#6D4534" d="M11.29 18.94 12.65 16H14v14l-2.8-7.87a.952.952 0 0 1 .23-1l1.36-1.33c.16-.16.05-.45-.19-.45h-1.05c-.21 0-.35-.22-.26-.41ZM20.76 18.94 19.4 16H18v14l2.85-7.87c.13-.35.03-.74-.23-1l-1.36-1.33a.265.265 0 0 1 .19-.45h1.05c.21 0 .35-.22.26-.41ZM9 18c-2.43 2.03-4.01 5.09-4 8.5V30h4V18ZM23 18v12h4v-1l-.01-2.51c0-3.41-1.54-6.47-3.99-8.49Z"/><path fill="#E6E6E6" d="M18.05 16.82h-4.11V30h4.11V16.82Z"/><path fill="#E4B29A" d="M16 18.67c-1.107 0-2-.92-2-2.06v-2.56c0-1.14.893-2.06 2-2.06s2 .92 2 2.06v2.56c-.01 1.14-.903 2.06-2 2.06Z"/><path fill="#FFF9BA" d="M22.25 5.29c-.3-.52-.77-.88-1.29-1.06a2.56 2.56 0 0 1-1.38-1.08A2.403 2.403 0 0 0 17.54 2c-.33 0-.65.07-.93.19-.39.17-.83.17-1.22 0-.29-.12-.6-.19-.94-.19-.85 0-1.59.44-2.01 1.11-.33.52-.83.92-1.41 1.12-.55.19-1.03.58-1.33 1.13-.43.8-.34 1.76.15 2.47.18.26.28.57.28.88v4.17c0 .93.59 1.75 1.47 2.06l1.89.65V8.17c.15-.14.27-.31.38-.5.17-.29.27-.61.3-.92a2.32 2.32 0 0 0 1.82-.55c.42.35.95.57 1.54.57.1 0 .19-.01.28-.02a2.373 2.373 0 0 0 .68 1.42v7.43l1.89-.65c.88-.3 1.47-1.13 1.47-2.06V8.72c0-.31.1-.62.28-.88.52-.74.59-1.73.12-2.55Z"/><path fill="#E4B29A" d="M12.77 10.59a1.67 1.67 0 1 1-3.34 0 1.67 1.67 0 0 1 3.34 0ZM22.56 10.59a1.67 1.67 0 1 1-3.34 0 1.67 1.67 0 0 1 3.34 0Z"/><path fill="#EEBFAA" d="M10.83 8.076A3.414 3.414 0 0 1 14.24 4.7h1.3c.28 0 .52.17.63.42.4.89 1.29 1.45 2.26 1.45h1.43c.8.04 1.43.71 1.41 1.52l-.012.518-.308 4.952A3.967 3.967 0 0 1 17.02 17h-1.9c-1.98 0-3.66-1.47-3.93-3.44l-.36-5.484Z"/><path fill="#A56953" d="M12.332 8.034a.274.274 0 0 0 .336.432l.095-.062a2.264 2.264 0 0 1 1.405-.292.274.274 0 0 0 .064-.544 2.812 2.812 0 0 0-1.75.366 1.955 1.955 0 0 0-.137.09l-.013.01ZM19.726 8.418a.274.274 0 0 0-.048-.384l-.002-.002-.002-.002-.01-.007a1.196 1.196 0 0 0-.135-.089 2.812 2.812 0 0 0-1.75-.366.274.274 0 1 0 .063.544 2.264 2.264 0 0 1 1.405.292 1.43 1.43 0 0 1 .093.06l.003.003c.119.092.29.07.383-.049Z"/><path fill="#fff" d="M12.18 10.28c.15-.62.71-1.08 1.38-1.08.69 0 1.27.49 1.4 1.15a.23.23 0 0 1-.23.28h-2.28c-.18 0-.31-.17-.27-.35ZM19.83 10.28c-.15-.62-.71-1.08-1.38-1.08-.7 0-1.27.49-1.4 1.15-.03.15.08.28.23.28h2.28c.18 0 .31-.17.27-.35Z"/><path fill="#7D4533" d="M12.86 10.39c0-.5.41-.91.91-.91.51 0 .91.41.91.91 0 .08-.01.16-.03.24h-1.76a.986.986 0 0 1-.03-.24ZM19.15 10.39c0-.5-.41-.91-.91-.91a.9.9 0 0 0-.91.91c0 .08.01.16.03.24h1.76c.02-.08.03-.16.03-.24Z"/><path fill="#000" d="M13.77 9.87a.516.516 0 0 1 .46.76h-.92a.516.516 0 0 1 .46-.76ZM18.24 9.87a.516.516 0 0 0-.46.76h.92a.516.516 0 0 0-.46-.76Z"/><path fill="#fff" d="M13.62 10.02a.16.16 0 1 1-.32 0 .16.16 0 0 1 .32 0ZM18.11 10.02a.16.16 0 1 1-.32 0 .16.16 0 0 1 .32 0Z"/><path fill="#D19479" d="m15.69 10.31-.53 1.71c-.11.35.15.71.52.71h.78c.37 0 .63-.36.52-.71l-.53-1.71c-.11-.38-.64-.38-.76 0Z"/><path fill="#990838" d="M16 13.68c-.54 0-1.05-.13-1.48-.36-.15-.08-.3.09-.21.23.36.55.98.92 1.69.92s1.33-.37 1.69-.92c.09-.14-.07-.3-.21-.23-.43.23-.93.36-1.48.36Z"/><g fill="#E4B29A" filter="url(#b)"><path d="M9.32 24.1c0-.55.45-1 1-1 .56 0 1 .45 1 1v2.29h-2V24.1ZM22.67 24.1c0-.55-.45-1-1-1-.56 0-1 .45-1 1v2.29h2V24.1Z"/></g><path fill="#433B6B" d="M20.83 8.49h-3.47c-.3 0-.58.14-.77.37a.64.64 0 0 1-.51.24.64.64 0 0 1-.51-.24c-.19-.23-.47-.37-.77-.37h-3.48c-.19 0-.34.15-.34.34v.22c0 .11.05.2.13.26.04.03.07.08.07.13v1.1c0 1.05.85 1.91 1.91 1.91h.71c1.05 0 1.91-.85 1.91-1.91v-.61c.01-.2.17-.35.37-.35.2 0 .36.16.37.36v.6c0 1.05.85 1.91 1.91 1.91h.71c1.05 0 1.91-.85 1.91-1.91V9.43c0-.05.02-.1.06-.13.08-.06.13-.16.13-.26v-.21c0-.19-.15-.34-.34-.34Zm-5.46 1.95c0 .91-.74 1.65-1.65 1.65h-.55c-.91 0-1.65-.74-1.65-1.65v-.72c0-.49.39-.88.88-.88h2.08c.49 0 .88.39.88.88v.72h.01Zm5.28 0c0 .91-.74 1.65-1.65 1.65h-.55c-.91 0-1.65-.74-1.65-1.65v-.72c0-.49.39-.88.88-.88h2.09c.49 0 .88.39.88.88v.72Z"/><path fill="#F92F60" d="M11.31 22.88V30h10.34v-8.19c0-.45-.36-.81-.81-.81H13.2c-1.05-.01-1.89.84-1.89 1.88Z"/><path fill="#433B6B" d="M10.31 30v-8.12c0-1.04.84-1.89 1.89-1.88h8.64c.45 0 .81.36.81.81v.625H12V30h-1.69Z"/><path fill="#E6E6E6" d="M21.64 20.86H12.1a.87.87 0 0 0 0 1.74h9.54v-1.74Z"/><path fill="#EEBFAA" d="M14.26 25.49a.763.763 0 0 0-.77-.73v-.01h-3.3a.87.87 0 0 0-.87.87v3.51c0 .48.39.87.87.87h3.3c.41 0 .76-.32.77-.73 0-.27-.13-.51-.34-.65.21-.13.34-.36.34-.62s-.14-.49-.34-.62c.21-.13.34-.36.34-.62s-.14-.49-.34-.62a.75.75 0 0 0 .34-.65ZM17.73 25.49c.01-.41.36-.73.77-.73v-.01h3.3c.48 0 .87.39.87.87v3.51c0 .48-.39.87-.87.87h-3.3c-.41 0-.76-.32-.77-.73 0-.27.13-.51.34-.65a.722.722 0 0 1-.34-.62c0-.26.14-.49.34-.62a.722.722 0 0 1-.34-.62c0-.26.14-.49.34-.62a.75.75 0 0 1-.34-.65Z"/></g><defs><clipPath id="a"><path fill="#fff" d="M0 0h32v32H0z"/></clipPath><filter id="b" width="21.35" height="11.29" x="5.32" y="23.1" color-interpolation-filters="sRGB" filterUnits="userSpaceOnUse"><feFlood flood-opacity="0" result="BackgroundImageFix"/><feColorMatrix in="SourceAlpha" result="hardAlpha" values="0 0 0 0 0 0 0 0 0 0 0 0 0 0 0 0 0 0 127 0"/><feOffset dy="4"/><feGaussianBlur stdDeviation="2"/><feColorMatrix values="0 0 0 0 0 0 0 0 0 0 0 0 0 0 0 0 0 0 0.25 0"/><feBlend in2="BackgroundImageFix" result="effect1_dropShadow_11769_20823"/><feBlend in="SourceGraphic" in2="effect1_dropShadow_11769_20823" result="shape"/></filter></defs></svg>
